packages/foundations/assets/icons/functional/images/human/stroller_24.svg

<svg width="24" height="24" viewBox="0 0 24 24" fill="none" xmlns="http://www.w3.org/2000/svg">
<g clip-path="url(#clip0_185_1205)">
<path fill-rule="evenodd" clip-rule="evenodd" d="M9.63428 16.2224C10.7607 16.6843 11.4965 17.7816 11.4967 18.9997C11.5058 20.6441 10.1843 21.9863 8.54096 22.0015C7.32373 22.0195 6.21634 21.2996 5.73803 20.1795C5.25972 19.0593 5.50535 17.761 6.35973 16.8932C7.21411 16.0255 8.50784 15.7605 9.63428 16.2224ZM17.6345 16.2225C18.7608 16.6844 19.4965 17.7817 19.4967 18.9997C19.5054 20.6442 18.1836 21.9863 16.5402 22.0015C15.323 22.0192 14.2159 21.2991 13.7378 20.1789C13.2597 19.0588 13.5056 17.7605 14.36 16.893C15.2144 16.0254 16.5081 15.7605 17.6345 16.2225ZM8.5444 17.9993C8.13607 17.9797 7.75697 18.2107 7.58711 18.5826C7.41725 18.9545 7.49086 19.3923 7.77297 19.6882C8.05509 19.9841 8.48889 20.0784 8.86837 19.9264C9.24785 19.7743 9.49658 19.4066 9.49644 18.9977C9.50855 18.4594 9.0827 18.0127 8.5444 17.9993ZM16.5429 17.9992C16.1348 17.9802 15.7562 18.2116 15.5867 18.5834C15.4173 18.9553 15.4911 19.3928 15.7732 19.6885C16.0553 19.9841 16.4889 20.0783 16.8682 19.9264C17.2476 19.7745 17.4963 19.4071 17.4965 18.9984C17.5082 18.4595 17.0818 18.0127 16.5429 17.9992ZM14.42 1.99811C18.6549 1.99811 21.4997 4.84433 21.4997 8.99811C21.5011 9.04908 21.4986 9.09851 21.4925 9.14633C21.4921 9.66871 21.4266 10.2011 21.28 10.7032C21.2023 10.9478 21.097 11.2585 20.9853 11.579L20.8495 11.9648C20.6453 12.5397 20.4477 13.0736 20.3805 13.2382C19.9387 14.3752 18.8596 14.9841 17.6515 14.9981H7.18228C5.95468 14.9957 4.85866 14.3639 4.4362 13.1985L3.54558 10.4458C3.44703 10.1406 3.49926 9.80605 3.686 9.54636C3.87275 9.28667 4.17914 9.14451 4.49669 9.14519L6.24094 9.14511L5.28164 7.58947C5.05689 7.22198 4.6595 6.99891 4.23219 7.00036H3.49001C2.94321 7.00036 2.49994 6.55215 2.49994 5.99925C2.49994 5.44635 2.94321 4.99811 3.49001 4.99811H4.23219C5.34349 4.99444 6.3769 5.57473 6.9612 6.53058L8.57294 9.14511H11.7239L13.4656 2.73431C13.5836 2.29963 13.9743 1.99826 14.42 1.99811ZM19.0368 10.9981H5.84669L6.30165 12.4075C6.44465 12.7684 6.79143 13.0041 7.17594 13.0018H17.6474C18.0534 12.9888 18.4101 12.7255 18.5462 12.3384C18.6048 12.1951 18.8223 11.6067 19.0368 10.9981ZM15.1637 4.0401L13.7769 9.14511L19.5275 9.14633C19.5214 9.09851 19.5189 9.04908 19.5203 8.99811C19.5203 5.71936 17.3873 4.284 15.1637 4.0401Z" fill="#1A1C1F"/>
</g>
<defs>
<clipPath id="clip0_185_1205">
<rect width="24" height="24" fill="white"/>
</clipPath>
</defs>
</svg>

<svg xmlns="http://www.w3.org/2000/svg" width="24" height="24" fill="none"><g clip-path="url(#a)"><path fill="#1A1C1F" fill-rule="evenodd" d="M9.634 16.222A3 3 0 0 1 11.497 19a2.984 2.984 0 0 1-2.956 3.002 3.003 3.003 0 0 1-2.181-5.108 3 3 0 0 1 3.274-.672m8 0A3 3 0 0 1 19.498 19a2.985 2.985 0 0 1-2.957 3.002 3.003 3.003 0 0 1-2.18-5.108 3 3 0 0 1 3.274-.671M8.545 18a1 1 0 1 0 .952.999.977.977 0 0 0-.952-.999m7.999 0a1 1 0 1 0 .954 1 .98.98 0 0 0-.954-1M14.42 2c4.235 0 7.08 2.845 7.08 7a1 1 0 0 1-.008.147c0 .523-.065 1.055-.212 1.557-.078.245-.183.556-.295.876l-.136.386a44 44 0 0 1-.468 1.273c-.442 1.137-1.521 1.746-2.73 1.76H7.182c-1.227-.002-2.323-.634-2.746-1.8l-.89-2.752a1.01 1.01 0 0 1 .14-.9.99.99 0 0 1 .81-.4h1.745l-.96-1.557A1.23 1.23 0 0 0 4.233 7H3.49a.996.996 0 0 1-.99-1 .996.996 0 0 1 .99-1.002h.742a3.19 3.19 0 0 1 2.73 1.533l1.61 2.614h3.152l1.742-6.41a.99.99 0 0 1 .954-.737m4.617 9H5.847l.455 1.409c.143.36.49.596.874.594h10.471a.99.99 0 0 0 .9-.664c.058-.143.275-.731.49-1.34M15.164 4.04l-1.387 5.105 5.75.001a1 1 0 0 1-.007-.148c0-3.279-2.133-4.714-4.356-4.958" clip-rule="evenodd"/></g><defs><clipPath id="a"><path fill="#fff" d="M0 0h24v24H0z"/></clipPath></defs></svg>
